src/images/trash-enabled.svg

<svg xmlns="http://www.w3.org/2000/svg" width="24" height="24" fill="none" xmlns:v="https://vecta.io/nano"><path fill-rule="evenodd" d="M15 3H9v2H3v2h18V5h-6V3zM5 9v11a2 2 0 0 0 2 2h10a2 2 0 0 0 2-2V9h-2v11H7V9H5zm4 0v9h2V9H9zm4 0v9h2V9h-2z" fill="#1a1b22"/></svg>

<svg width="24" height="24" viewBox="0 0 24 24" fill="none" xmlns="http://www.w3.org/2000/svg">
<path fill-rule="evenodd" clip-rule="evenodd" d="M15 3H9V5H3V7H21V5H15V3ZM5 9V20C5 21.1046 5.89543 22 7 22H17C18.1046 22 19 21.1046 19 20V9H17V20H7V9H5ZM9 9L9 18H11L11 9H9ZM13 9V18H15V9H13Z" fill="#1A1B22"/>
</svg>
